/* XPM */
static char * collectible_xpm[] = {
"32 32 18 1",
" 	c #6EA400",
".	c #6B9E00",
"+	c #7BB404",
"@	c #679900",
"#	c #669800",
"$	c #609000",
"%	c #998B21",
"&	c #78B104",
"*	c #B5A630",
"=	c #CABB41",
"-	c #649500",
";	c #E3D567",
">	c #FFEC00",
",	c #998B1F",
"'	c #857927",
")	c #6A9E00",
"!	c #689B00",
"~	c #619000",
" .  .  +  ..  @##$ .%   &      .",
"  .. .  * +     .  *=-  .+ + .. ",
"...  . .=* - . +  ;%>.  .   .  .",
".  &  . >%=- . & *=%* .   . - + ",
" +&  .  %=*=    *>*;=+ . -.. .&+",
" +   . +;=%;*   *=%%*& + =*=-  &",
"   .- . *%=*=-.*;*>;= &=%>= .  .",
" -  -. .;>=%>* *=%%*%;*=%*   .. ",
". . .  .**%=*=.>*>;=%=%>;=  +  .",
" . .&+  =;>=%;.;%%*%;*=%**+..   ",
".-.  &+ ***%=* =;=%*>*>;=    .. ",
".-    &+ =;>%;.%*%%*=%%* . .-.  ",
" .. . .  ***%= *% ;*=>;=.-.     ",
" .  . .,  =;>*.*. =%%**&  .  + .",
"  +  + %.  .*= * .*=>;= &+  +&  ",
".  + +,='&  *= %. =%** ' &+ &  .",
" . .  %;' +  =.%  >;=-'' .& . - ",
" .   -%;, ''+=*%.*=  '*'     .  ",
"   +  %;*'=='=*% =* '=' .  .   -",
" +&  .%;='**'*=%*=&'=*'  .-. &  ",
"+&  ..,;;*'*''=%=*'=*%' . -   + ",
"&     ,=;*'%%'=%=,,*%' . . .. & ",
" . .  '*;=,'%'=*='*%'=' -.  -  .",
".   .,=,;=*'''=*='%'=;*'     .  ",
" - -,=*,=;**''*=*%'=*;=*' +   . ",
"  .-,*'',;=*,'%=*'=*'=;='+&  .- ",
" . ,*'' ,=;=*',=,%=*,'=;*'..   .",
"  &,'+ + '=;=*'*'=*%,',;='.  .  ",
" +.' &+  .'*;=*',=*,,' ,;'-  + .",
"+&  . &... '*;='=*%,')+ *'-.  + ",
"& .   .  - )''**=%''!+  ,.  . & ",
"   . .. .  +)~''''~). ..  .  .. "};
