/* XPM */
static char * wall_0_xpm[] = {
"32 32 38 1",
" 	c #6EA400",
".	c #6B9E00",
"+	c #7BB404",
"@	c #4E643C",
"#	c #39433C",
"$	c #649500",
"%	c #78B104",
"&	c #648A04",
"*	c #78A205",
"=	c #95BB1F",
"-	c #B1D83B",
";	c #A4CB2E",
">	c #6A9D00",
",	c #608D1E",
"'	c #6EA300",
")	c #618A2A",
"!	c #527527",
"~	c #608D1D",
"{	c #6DA300",
"]	c #608A2B",
"^	c #557B28",
"/	c #547827",
"(	c #5F8B1D",
"_	c #629300",
":	c #6A9C00",
"<	c #5D881D",
"[	c #557928",
"}	c #68971D",
"|	c #6A9F00",
"1	c #6CA000",
"2	c #6DA200",
"3	c #6CA100",
"4	c #5C861C",
"5	c #5E8A1D",
"6	c #5C861D",
"7	c #74AC04",
"8	c #6BA000",
"9	c #78B004",
" .  .  +  ..  @@#$ .    %      .",
"  .. .  % +& *&&&@ # $  .+ + .. ",
"...  . . &**==*=**@&@## .   .  .",
".  %  . &*=---;*-;=*&&@#  . $ + ",
" +%  .&*=------=;--;=*@&@#.. .%+",
" +   &*==;-----;--;;*=*=&@# $  %",
"   .$;;--=;--;;==;;=*====*& .  .",
" $  &=---;=;----;=*==;;;=*@# .. ",
". .&=---;=;------;=*=;--;=&@#  .",
" . *=;-;==------;;=*;;-;-;&@#   ",
".$&**=;=*;---;-;;=;=;-;-;;*&@#. ",
".$&=;--;==;-;-;-=;=*=--;;=*&#.  ",
" @*=----;*=;;;;=*==**=;;=*&@&#  ",
" .&;-;-;;=;=;=*=**=;;;=**&*&@##.",
" @*=;;;==;---;=*=;--;===**&&##  ",
".@&*====;--;-;-==----;;==*&@&@#.",
" .@&*==*;-;-;;;=;;-;;=***=*&&@# ",
" @&@&*&*=;;;;=;*;;=;-;;=***&@#@ ",
" @&&&&**===;=;==;=;-;-;;=*&&@@#$",
" @&*&*=**=*=;*=*=;;--;;==&&@&@# ",
"+#@**&*=**=*==***=;;;;==*@@&@## ",
"%#@&&*&*&**=;;;==*===**&&&&&@#% ",
" .#@&&@&*&*==;==*=**&***&@&@#@#.",
".  #@&&@&&**=*=*=*&**&&&@@&@@#  ",
" $#@#@&&@@&**&***&@&&&&@@&@@##. ",
"  .##@@@&@@&&*&&&&&@@@@@@@@##>$ ",
" .  ##@@@#@@@&&&@@@&&@#@@###,' .",
"  %  )#@#@#@@@@@@@#@@@@##!#~{.  ",
" +.  %]#^#@##@@@##@@###/#(_' + .",
"+%  . %.:<#[########/#}|12$.  + ",
"% .   .  ${31(456557893{$.  . % ",
"   . .. .  + .. . . . ..  .  .. "};
