/* XPM */
static char * grass_0_xpm[] = {
"32 32 5 1",
" 	c #6EA400",
".	c #6B9E00",
"+	c #7BB404",
"@	c #649500",
"#	c #78B104",
" .  .  +  ..  .  @ .    #      .",
"  .. .  # +     .  . @  .+ + .. ",
"...  . .   @ . +  .  .  .   .  .",
".  #  . @ .@ . # .+.  .   . @ + ",
" +#  .    .     .   #+ . @.. .#+",
" +   . ++   +    @ . # + @. @  #",
"   .@ . #+ + @. .@.   #..   .  .",
" @  @. . #.+.@ .  ..     .   .. ",
". . .  ....  ..@ .  @. . #  +  .",
" . .#+   .    ..   .@     +..   ",
".@.  #+ +  . .   +   . .     .. ",
".@    #+  .   .   +    . . .@.  ",
" .. . .  .  #  +. # +.. .@.     ",
" .  . .@     +.#.  .   #  .  + .",
"  +  + @.  .     . . .  #+  +#  ",
".  + +   #   . ..   .@   #+ #  .",
" . .   .  +   ..  @  @ . .# . @ ",
" .   @.   # +  @.    .       .  ",
"   +   .   .  .@  +     .  .   @",
" +#  . @ .  .    .#+  +  .@. #  ",
"+#  .. @ @.    . . #.+. . @   + ",
"#      .   . +    ..   . . .. # ",
" . .  +  .   #+  +   .  @.  @  .",
".   . # + .   #.+. .         .  ",
" @ @.  ..  @.        + .  +   . ",
"  .@  .  .   .  .@.   #+ +#  .@ ",
" .      . +     .   .. # #..   .",
"  #  + + .#+  +    . @   ..  .  ",
" +.  #+  . # +.. +      . @  + .",
"+#  . #...  .  @  #+  +   @.  + ",
"# .   .  @    . .  # +  @.  . # ",
"   . .. .  + .. . . . ..  .  .. "};
