/* XPM */
static char * exit_0_xpm[] = {
"32 32 14 1",
" 	c #6EA400",
".	c #6B9E00",
"+	c #7BB404",
"@	c #649500",
"#	c #78B104",
"$	c #645420",
"%	c #9B854C",
"&	c #A99458",
"*	c #897233",
"=	c #766329",
"-	c #9D8543",
";	c #4E4117",
">	c #38311A",
",	c #1F1B0E",
" .  .  +  ..  .  @ .    #      .",
"  .. .  # +     .  . @  .+ + .. ",
"...  . .   @ . +  .  .  .   .  .",
".  #  . @ .@$$%&%*$$  .   . @ + ",
" +#  .    **=$*&%$=*-&$. @.. .#+",
" +   . +*$%*=$*&*;=-&-$=$@. @  #",
"   .@ *$*$%**;=%=;=-&&$*&-  .  .",
" @  @=$;=$***;=*$;=*-&$-&=&  .. ",
". . $;;;$$=*=;$=$;$=*&;--=&&+  .",
" . ;$$;;$=$=$;;$;$*$;*$-&$&&*   ",
".@.;;$;;;=;$*$;;;**$*;;*-;&-=$. ",
".@;>;$;>$=$$*=;;$=*$-$;**$&-==  ",
" .>>>;;>$=$=*=;$=$=*-=$*=;-*$*  ",
" ;>>;>;>;=$=*=$;=*$**=;-*;*-$*=.",
" >>>>$>>>$;===$;$=;*-=;--;--$-= ",
".>>>;>;>;>$;=$$>$$$**$$-*;*-=*=.",
" >>>>;>>>$>;=$;;;$;=*$;-*;=-=-= ",
" ;>,;>;>;>;>$;;>;;;==$;*=;=*=-= ",
" $>>>;>>>;>;>;>,;>;$;;>=;;$==-=@",
" +>,>>>,>>>>>>>,>>>;>>>;;$;==*  ",
"+#;,>;,,,>,>,>,,,>,>,>>>;>;$==+ ",
"#  >,>>,>,>,>,>,,,>,>,>,>>>;=$# ",
" . ;,>,,,>,>,,,,,,,>,>,>,>>>$  .",
".   ;,>,>,,,,,,,,,,,,,>,>>,; .  ",
" @ @.;,,,,,,,,,,,,,,,,,,,>;   . ",
"  .@  ;>,,,,,,,,,,,,,,,,>;#  .@ ",
" .     $;>,,,,,,,,,,,,>;$#..   .",
"  #  + + $;>,,,,,,,,>;$  ..  .  ",
" +.  #+  . #$;;;;;;$    . @  + .",
"+#  . #...  .  @  #+  +   @.  + ",
"# .   .  @    . .  # +  @.  . # ",
"   . .. .  + .. . . . ..  .  .. "};
