/* XPM */
static char * exit_closed_xpm[] = {
"32 32 44 1",
" 	c #6EA400",
".	c #6B9E00",
"+	c #7BB404",
"@	c #649500",
"#	c #78B104",
"$	c #645420",
"%	c #9B854C",
"&	c #A99458",
"*	c #897233",
"=	c #766329",
"-	c #9D8543",
";	c #4E4117",
">	c #615016",
",	c #756020",
"'	c #AE9754",
")	c #9E8647",
"!	c #8A712B",
"~	c #CCB166",
"{	c #493B0C",
"]	c #38311A",
"^	c #7E6B33",
"/	c #A1863D",
"(	c #658F04",
"_	c #574918",
":	c #372D0C",
"<	c #4B3E14",
"[	c #3B3115",
"}	c #4C4016",
"|	c #6DA300",
"1	c #5D8204",
"2	c #77B004",
"3	c #5E7D06",
"4	c #362D0C",
"5	c #4C3F16",
"6	c #63531F",
"7	c #6F9C07",
"8	c #574818",
"9	c #3C3216",
"0	c #4D4016",
"a	c #635320",
"b	c #5D4E1C",
"c	c #4D4014",
"d	c #4B3E12",
"e	c #4C3E14",
" .  .  +  ..  .  @ .    #      .",
"  .. .  # +     .  . @  .+ + .. ",
"...  . .   @ . +  .  .  .   .  .",
".  #  . @ .@$$%&%*$$  .   . @ + ",
" +#  .    **=$*&%$=*-&$. @.. .#+",
" +   . +*$%*=$*&*;=-&-$=$@. @  #",
"   .@ *$*$%>>>>%=;=-&&$*&-  .  .",
" @  @=$;=>,'')!>>;=*-&$-&=&  .. ",
". . $;;;,'~~~')!,{{=*&;--=&&+  .",
" . ;$$;,'~~'')!!,>{{;*$-&$&&*   ",
".@.;;$,)~~~')!!,,>>{{{;*-;&-=$. ",
".@;];,!)~~'))!!,>>>{{{{>>$&-==  ",
" .]],!!!'')!!!,>{{>>{{,>>>-*$*  ",
" ;],))!,!!,,,,>>>{{{^!!,>>>-$*=.",
" ],''')!,,,,>,,>>>!)^^!!,>>>$-= ",
".],'~~')),,>>>>>,!)))^!!,,>{=*=.",
" ,'~~~~''),,^>>^))'))^^!!,{{=-= ",
" ,'~~~~~~''))^>^)'''))^^^>{{{-= ",
",!'~~~~~'~''))^>^)')')^^>>>{{-=@",
",!/'~~~~~'~''')^^)''))^>>{>{{*  ",
",!/''~~~~~'''))^^^)))^>,>{>{{=+ ",
">,/'''~~~'))^^^!^^^^^,,,>{>{{$# ",
"(>!'/''/!^^^^>,!,>>>>,,,{{{{_  .",
".(>!/'//!!!!,>,!>>{>{>,>{{:< .  ",
" @(>,//!!!!,,>,!>>{>{>>{{[}|  . ",
"  .1>>,,,,,,,>,!>{{{{{{{[}2  .@ ",
" .  (3>>>,,,>>>,>{{{{4[56#..   .",
"  #  + 7(8>>>>>>>{{:90a  ..  .  ",
" +.  #+  . #bcddde;$    . @  + .",
"+#  . #...  .  @  #+  +   @.  + ",
"# .   .  @    . .  # +  @.  . # ",
"   . .. .  + .. . . . ..  .  .. "};
