/* XPM */
static char * chicken_right_1_xpm[] = {
"32 32 25 1",
" 	c #6EA400",
".	c #6B9E00",
"+	c #7BB404",
"@	c #649500",
"#	c #78B104",
"$	c #000000",
"%	c #CCD6D6",
"&	c #F0FAFA",
"*	c #FF0000",
"=	c #ECF5F5",
"-	c #D3DDDD",
";	c #D1DBDB",
">	c #F5FFFF",
",	c #9DA7A7",
"'	c #B7C1C1",
")	c #B8A000",
"!	c #E9F2F2",
"~	c #D2DCDC",
"{	c #D4DEDE",
"]	c #E6EFEF",
"^	c #B1BBBB",
"/	c #586363",
"(	c #858F8F",
"_	c #656F6F",
":	c #E8CD60",
" .  .  +  ..  .  @ .    #      .",
"  .. .  # +     .  . @  .+ + .. ",
"...  . .   @ . +  .  .  .   .  .",
".  #  . @ .@ . # .+.  .   . @ + ",
" +#  .    .     .   #+ . @.. .#+",
" +   . ++   +    @ . # + @. @  #",
"   .@ . #+ + @. .@.   #..   .  .",
" @  @. . #.+.@ .  ..     .   .. ",
". . . $$...  ..@ .  @. . #  +  .",
" . .#+$$ .    ..   .@     +..   ",
".@. $$%%$$ . .   +   .$$     .. ",
".@  $$%%$$.   .   +   $$ . .@.  ",
" .$$%%&&%%$$$$ +. $$$$**$$.     ",
" .$$%%&&%%$$$$.#. $$$$**$$.  + .",
"  $$%%&&==--;;$$$$%%%%>>**$$+#  ",
". $$%%&&==--;;$$$$%%%%>>**$$#  .",
" .$$,,%%%%>>>>%%%%>>$$>>**$$. @ ",
" .$$,,%%%%>>>>%%%%>>$$>>**$$ .  ",
"   +$$''>>>>>>-->>========))$$ @",
" +# $$''>>>>>>-->>========))$$  ",
"+#  $$,,%%>>>>>>!!====****$$  + ",
"#   $$,,%%>>>>>>!!====****$$. # ",
" . .  $$,,%%%%~~{{]]^^,,**$$@  .",
".   . $$,,%%%%~~{{]]^^,,**$$ .  ",
" @ @.  .$$$$//((,,^^__$$$$+   . ",
"  .@  . $$$$//((,,^^__$$$$#  .@ ",
" .      . + $$::$$::$$ # #..   .",
"  #  + + .#+$$::$$::$$   ..  .  ",
" +.  #+  . # +.. +      . @  + .",
"+#  . #...  .  @  #+  +   @.  + ",
"# .   .  @    . .  # +  @.  . # ",
"   . .. .  + .. . . . ..  .  .. "};
