/* XPM */
static char * chicken_left_1_xpm[] = {
"31 32 25 1",
" 	c #6EA400",
".	c #6B9E00",
"+	c #7BB404",
"@	c #649500",
"#	c #78B104",
"$	c #000000",
"%	c #CCD6D6",
"&	c #FF0000",
"*	c #F0FAFA",
"=	c #F5FFFF",
"-	c #D1DBDB",
";	c #D3DDDD",
">	c #ECF5F5",
",	c #9DA7A7",
"'	c #B8A000",
")	c #B7C1C1",
"!	c #E9F2F2",
"~	c #B1BBBB",
"{	c #E6EFEF",
"]	c #D4DEDE",
"^	c #D2DCDC",
"/	c #656F6F",
"(	c #858F8F",
"_	c #586363",
":	c #E8CD60",
" .  .  +  ..  .  @ .    #      ",
"  .. .  # +     .  . @  .+ + ..",
"...  . .   @ . +  .  .  .   .  ",
".  #  . @ .@ . # .+.  .   . @ +",
" +#  .    .     .   #+ . @.. .#",
" +   . ++   +    @ . # + @. @  ",
"   .@ . #+ + @. .@.   #..   .  ",
" @  @. . #.+.@ .  ..     .   ..",
". . .  ....  ..@ .  @. .$$  +  ",
" . .#+   .    ..   .@   $$+..  ",
".@.  #+ $$ . .   +   .$$%%$$ ..",
".@    #+$$.   .   +   $$%%$$@. ",
" .. . $$&&$$$$ +. $$$$%%**%%$$ ",
" .  . $$&&$$$$.#. $$$$%%**%%$$ ",
"  + $$&&==%%%%$$$$--;;>>**%%$$ ",
".  +$$&&==%%%%$$$$--;;>>**%%$$ ",
" . .$$&&==$$==%%%%====%%%%,,$$@",
" .  $$&&==$$==%%%%====%%%%,,$$ ",
"  $$''>>>>>>>>==;;======))$$   ",
" +$$''>>>>>>>>==;;======))$$ # ",
"+#  $$&&&&>>>>!!======%%,,$$  +",
"#   $$&&&&>>>>!!======%%,,$$. #",
" . .$$&&,,~~{{]]^^%%%%,,$$  @  ",
".   $$&&,,~~{{]]^^%%%%,,$$   . ",
" @ @. $$$$//~~,,((__$$$$  +   .",
"  .@  $$$$//~~,,((__$$$$ +#  .@",
" .      . $$::$$::$$.. # #..   ",
"  #  + + .$$::$$::$$ @   ..  . ",
" +.  #+  . # +.. +      . @  + ",
"+#  . #...  .  @  #+  +   @.  +",
"# .   .  @    . .  # +  @.  . #",
"   . .. .  + .. . . . ..  .  .."};
