/* XPM */
static char * chicken_left_2_xpm[] = {
"32 32 30 1",
" 	c #6EA400",
".	c #6B9E00",
"+	c #7BB404",
"@	c #649500",
"#	c #78B104",
"$	c #000000",
"%	c #FF0000",
"&	c #F0FFFF",
"*	c #C7D6D6",
"=	c #CCD6D6",
"-	c #B8A03E",
";	c #E7F5F5",
">	c #D3DDDD",
",	c #E4F2F2",
"'	c #CEDDDD",
")	c #CCDBDB",
"!	c #ECFAFA",
"~	c #E0EFEF",
"{	c #E1EFEF",
"]	c #CFDEDE",
"^	c #98A7A7",
"/	c #ACBBBB",
"(	c #606F6F",
"_	c #CDDCDC",
":	c #B2C1C1",
"<	c #536363",
"[	c #808F8F",
"}	c #788383",
"|	c #849393",
"1	c #A5B4B4",
" .  .  +  ..  .  @ .    #      .",
"  .. .  # +     .  . @  .+ + .. ",
"...  . .   @ . +  .  .  .   .  .",
".  #  . @ .@ . # .+.  .   . @ + ",
" +#  .    .     .   #+ . @.. .#+",
" +   . ++   +    @ . # + @. @  #",
"   .@ . #+ + @. .@.   #..   .  .",
" @  @. . #.+.@ .  ..     .   .. ",
". . .  .$$.  ..@ .  @. . #  +  .",
" . .#+  $$    ..   .@     +..   ",
".@.  #$$%%$$$$   +   . .     .. ",
".@    $$%%$$$$.   +    . . .@.  ",
" .. $$%%&&****$$. # +.. .@$$    ",
" .  $$%%&&****$$.  .   #  $$ + .",
"  + $$%%&&$$&&**$$ . .$$$$==$$  ",
".  +$$%%&&$$&&**$$  .@$$$$==$$ .",
" .$$--;;;;;;;;&&**$$$$====>>$$@ ",
" .$$--;;;;;;;;&&**$$$$====>>$$  ",
"   +$$%%%%;;;;,,''))'';;!!**$$ @",
" +# $$%%%%;;;;,,''))'';;!!**$$  ",
"+#  $$%%~~~~{{]]&&&&&&**!!**$$+ ",
"#   $$%%~~~~{{]]&&&&&&**!!**$$# ",
" . .  $$^^//{{]]&&&&&&&&**^^$$ .",
".   . $$^^//{{]]&&&&&&&&**^^$$  ",
" @ @$$((//^^//{{__&&&&**::$$  . ",
"  .@$$((//^^//{{__&&&&**::$$ .@ ",
" .    $$<<[[^^}}||11::||$$..   .",
"  #  +$$<<[[^^}}||11::||$$.  .  ",
" +.  #+  . # +.. +      . @  + .",
"+#  . #...  .  @  #+  +   @.  + ",
"# .   .  @    . .  # +  @.  . # ",
"   . .. .  + .. . . . ..  .  .. "};
