/* XPM */
static char * chicken_right_2_xpm[] = {
"32 32 27 1",
" 	c #6EA400",
".	c #6B9E00",
"+	c #7BB404",
"@	c #649500",
"#	c #78B104",
"$	c #000000",
"%	c #FF0000",
"&	c #C7D6D6",
"*	c #F0FFFF",
"=	c #CCD6D6",
"-	c #D3DDDD",
";	c #E7F5F5",
">	c #B8A03E",
",	c #ECFAFA",
"'	c #CEDDDD",
")	c #CCDBDB",
"!	c #E4F2F2",
"~	c #98A7A7",
"{	c #CFDEDE",
"]	c #E1EFEF",
"^	c #E0EFEF",
"/	c #B2C1C1",
"(	c #ACBBBB",
"_	c #CDDCDC",
":	c #606F6F",
"<	c #808F8F",
"[	c #536363",
" .  .  +  ..  .  @ .    #      .",
"  .. .  # +     .  . @  .+ + .. ",
"...  . .   @ . +  .  .  .   .  .",
".  #  . @ .@ . # .+.  .   . @ + ",
" +#  .    .     .   #+ . @.. .#+",
" +   . ++   +    @ . # + @. @  #",
"   .@ . #+ + @. .@.   $$.   .  .",
" @  @. . #.+.@ .  ..  $$ .   .. ",
". . .  ....  ..@ .$$$$%%$$  +  .",
" . .#+   .    ..  $$$$%%$$+..   ",
".@. $$+ +  . .  $$&&&&**%%$$ .. ",
".@  $$#+  .   . $$&&&&**%%$$@.  ",
" .$$==$$$$  # $$&&**$$**%%$$    ",
" .$$==$$$$   +$$&&**$$**%%$$ + .",
"  $$--====$$$$&&**;;;;;;;;>>$$  ",
". $$--====$$$$&&**;;;;;;;;>>$$ .",
" .$$&&,,;;''))''!!;;;;%%%%$$. @ ",
" .$$&&,,;;''))''!!;;;;%%%%$$ .  ",
"  $$~~&&&&******{{]]^^^^%%$$   @",
" +$$~~&&&&******{{]]^^^^%%$$ #  ",
"+#  $$//********{{]]((~~$$@   + ",
"#   $$//********{{]]((~~$$ .. # ",
" . .$$~~&&****__~~((::$$@.  @  .",
".   $$~~&&****__~~((::$$     .  ",
" @ @. $$~~&&&&((~~<<[[$$  +   . ",
"  .@  $$~~&&&&((~~<<[[$$ +#  .@ ",
" .      $$[[<<~~[[[[$$ # #..   .",
"  #  + +$$[[<<~~[[[[$$   ..  .  ",
" +.  #+  . # +.. +      . @  + .",
"+#  . #...  .  @  #+  +   @.  + ",
"# .   .  @    . .  # +  @.  . # ",
"   . .. .  + .. . . . ..  .  .. "};
