/* XPM */
static char * chicken_left_0_xpm[] = {
"30 29 26 1",
" 	c #6EA400",
".	c #6B9E00",
"+	c #78B104",
"@	c #7BB404",
"#	c #649500",
"$	c #000000",
"%	c #FF0000",
"&	c #F0FFFF",
"*	c #C7D6D6",
"=	c #B8A03E",
"-	c #E7F5F5",
";	c #ECFAFA",
">	c #E4F2F2",
",	c #CEDDDD",
"'	c #CCDBDB",
")	c #E0EFEF",
"!	c #E1EFEF",
"~	c #CFDEDE",
"{	c #98A7A7",
"]	c #ACBBBB",
"^	c #B2C1C1",
"/	c #606F6F",
"(	c #CDDCDC",
"_	c #536363",
":	c #808F8F",
"<	c #E8CD60",
" .. .  + @     .  . #  .@ @ ..",
"..  . .$$ # . @  .  .  .   .  ",
"  +  . $$.# . + .@.  .   . # @",
"@+  .$$%%$$$$  .   +@ . #.. .+",
"@   .$$%%$$$$   # . + @ #. #  ",
"  .$$%%&&****$$.#.   +.$$  .  ",
"#  $$%%&&****$$  ..    $$   ..",
" . $$%%&&$$&&**$$  #.$$**$$@  ",
". .$$%%&&$$&&**$$ .# $$**$$.  ",
"#$$==--------&&**$$$$**;;**$$.",
"#$$==--------&&**$$$$**;;**$$ ",
".. $$%%%%---->>,,'',,--;;**$$ ",
".  $$%%%%---->>,,'',,--;;**$$ ",
" @ $$%%))))!!~~&&&&&&****{{$$ ",
"  @$$%%))))!!~~&&&&&&****{{$$ ",
". .  $${{]]!!~~&&&&&&&&^^$$. #",
".   #$${{]]!!~~&&&&&&&&^^$$ . ",
"  @   .$$//]]{{((&&&&**{{$$   ",
"@+  . #$$//]]{{((&&&&**{{$$ + ",
"+  .. # #$$__::{{****{{$$#   @",
"      .  $$__::{{****{{$$ .. +",
". .  @  .  $$____::__$$#.  #  ",
"   . + @ . $$____::__$$     . ",
"# #.  ..  #$$==$$==$$ .  @   .",
" .#  .  .  $$==$$==$$+@ @+  .#",
".      . $$<<$$<<$$.. + +..   ",
" +  @ @ .$$<<$$<<$$ #   ..  . ",
"@.  +@  . + @.. @      . #  @ ",
"+  . +...  .  #  +@  @   #.  @"};
